!!!OTL: Totenamt.
!!!OTL-incipit: Es taget minnecliche
!!!ARE: Europa, Mitteleuropa, Deutschland
!!!YOR: 3, S. 162
!!    1421 Handschrift aus Strassburg
!!!SCT: Q0061B
!!!YEM: Copyright 1995, estate of Helmut Schaffrath.
**kern	**text
*ICvox	*
!! Irregular meter.
*MX	*
*k[f#]	*
*G:	*
!LO:TX:a:t=e Laufenberg 1421	!
{4g	Es
=1	=1
2g	ta
4cc	get
2b	min-
4a	-nec-
=2	=2
2cc	-li-
2dd	.
2b	.
2a}	-che
{2ee	die
=3	=3
2dd	ſunn
4dd	der
2b	gna-
4b	-den
=4	=4
2cc	vol
2dd	.
2b	.
2a}	.
{2g	Je-
=5	=5
2b	-jus
4cc	von
2dd	hi-
4ee	-mel-
=6	=6
2dd	-ri-
2cc	.
4b	.
2a	.
2g}	-che
{4a	muß
=7	=7
2dd	uns
4cc	be-
2b	-hü-
4a	-ten
=8	=8
[2g	wohl.
2g]}	.
==	==
!!!AGN: Ballade, Liebe, Eifersucht, Tod; geistlich
!! Geistliche Kontrafaktur.
!!!ONB: ESAC (Essen Associative Code) Database: BALLADE
!!!AMT: irregular
!!!AIN: vox
!!!EED: Helmut Schaffrath
!!!EEV: 1.0
!!!source: Deutsche Volkslieder mit ihren Melodien. Herausgegeben vom Deutschen Volksliedarchiv. Dritter Band Balladen. Berlin 1954.
!!!page: 162
!!!ENC: Anna Maria Matuszewska
!!!EEV: 2025/02/20
*-	*-
